!!!COM: Brahms, Johannes
!!!CDT: 1833/05/07/-1897/04/03/
!!!OTL: Ballad No. 1 in D Minor, Op. 10
!!!ODT: 1854
!!!PDT: 1856
!!!ODE: J.O. Grimm
!!!OPS: Op. 10
!!!ONM: No. 1
**kern	**kern	**dynam
*staff2	*staff1	*staff1
*clefF4	*clefG2	*clefG2
*k[b-]	*k[b-]	*k[b-]
*d:	*d:	*d:
*met(C)	*met(C)	*met(C)
*M4/4	*M4/4	*M4/4
*MM120	*MM120	*MM120
4DD/ 4AA/ 4D/	4a\ 4ff\ (4aa\	p
=1	=1	=1
4DD/ 4AA/ 4D/	4a\ 4ff\ 4aa\	.
8DD'/ 8FF'/ 8D'/L	8f'\ 8dd'\ 8ff'\L	.
&(8DD'/&) 8GG'/ 8D'/J	8g'\ 8ee'\ &(8gg'\J&)	.
4DD/ 4AA/ 4D/	4a\ 4ff\ 4aa\	.
4DD/ 4FF/ 4D/	4d/ 4f/ 4dd/	.
=2	=2	=2
4.AAA/ 4.EE/ 4.AA/	4.e/ 4.a/ 4.ee/	.
8AAA/ 8AA/	&(8A/&) 8a/	.
4AAA/ 4AA/	4A/ 4a/)	.
4E\	4e/ (4ee/	.
=3	=3	=3
4AA\ &(4A\&)	4a/)	.
4EE/	4E/ (4e/	pp
&(4AAA/&) 4AA/	4A/)	.
4DD/ 4AA/ 4D/	4a\ 4ff\ (4aa\	p
=4	=4	=4
4DD/ 4AA/ 4D/	4a\ 4ff\ 4aa\	.
8DD'/ 8FF'/ 8D'/L	8f'\ 8dd'\ 8ff'\L	.
&(8DD'/&) 8GG'/ 8D'/J	8g'\ 8ee'\ &(8gg'\J&)	.
4DD/ 4AA/ 4D/	4a\ 4ff\ 4aa\)	.
4GG/ 4BB-/ 4D/	4d'/ 4b-'/ (4dd'/	.
=5	=5	=5
*^	*	*
4GG/ 4BB-/ 4D/	2.r	4d/ 4b-/ 4dd/	.
8GG'/ 8BB-'/L	.	8B-'/ 8g'/ 8b-'/L	.
&(8GG'/&) 8AA'/ 8C'/J	.	&(8c'/&) 8a'/ 8cc'/J	.
4GG/ 4BB-/ 4D/	.	4d/ 4b-/ 4dd/)	.
[4E-/	[4EE-\	[4G/ (4g/	.
=6	=6	=6	=6
4E-/]	2.EE-\]	2.G/] 2.c#/)	.
2BB-/	.	.	.
*	*	*clefF4	*clefF4
[4BB-/	[4BBB-\	4C#\ (4c#\	.
=7	=7	=7	=7
4BB-/]	4BBB-\]	[2.D\ 2.d\)	.
2.FF/	2.r	.	.
.	.	4D\] (4G#\	.
*v	*v	*	*
=8	=8	=8
2.AAA/ 2.AA/	&(2.C#\&) 2.A\)	.
*	*clefG2	*clefG2
4BBB-/ 4BB-/	(4f/ 4b-/ 4dd/	p
=9	=9	=9
4CC/ 4C/	4e-/ 4a/ 4cc/	.
8DD/ 8D/L	8d/ 8f/ 8b-/L	.
8CC/ 8C/J	8e-/ 8a/ 8cc/J	.
4DD/ 4D/	4c/ 4f#/ 4a/	.
&(4GG/&) 4G/	4B-/) 4g/	.
=10	=10	=10
4BBB-/ 4BB-/	(4f/ 4b-/ 4dd/	.
4CC/ 4C/	4e-/ 4a/ 4cc/	.
4.DD/ 4.D/	4.c/ 4.f#/ 4.a/	.
8GGG/ 8GG/	8B-/ 8g/	.
=11	=11	=11
&(4GGG/&) 4GG/	4B-/) 4g/	.
4EEE-/ 4EE-/	4B-/ 4e-/ (4g/	.
4FFF/ 4FF/	4A-/ 4d/ 4f/	.
8GGG/ 8GG/L	8G/ 8B-/ 8e-/L	.
8FFF/ 8FF/J	8A-/ 8d/ 8f/J	.
=12	=12	=12
4GGG/ 4GG/	4F/ 4Bn/ 4d/	.
&(4CC/&) 4C/	4E-/ 4c/)	.
4EEE-/ 4EE-/	4B-/ 4e-/ (4g/	.
4FFF/ 4FF/	4A-/ 4d/ 4f/	.
=13	=13	=13
*	*^	*
4GGG/ 4GG/	4d\	4.B-/ 4.b-/	.
&(4AAAn/&) 4AAn/	4c#\	.	.
.	.	8A/ 8a/)	.
4AAA;/ 4AA;/	4en\	4A;/ 4a;/	.
4DD/ 4AA/ 4D/	4a\ 4ff\ (4aa\	4r	p
*	*v	*v	*
=14	=14	=14
4DD/ 4AA/ 4D/	4a\ 4ff\ 4aa\	.
8DD'/ 8FF'/ 8D'/L	8f'\ 8dd'\ 8ff'\L	.
&(8DD'/&) 8GG'/ 8D'/J	8g'\ 8ee'\ &(8gg'\J&)	.
4DD/ 4AA/ 4D/	4a\ 4ff\ 4aa\	.
4DD/ 4FF/ 4D/	4d/ 4f/ 4dd/	.
=15	=15	=15
4.AAA/ 4.EE/ 4.AA/	4.e/ 4.a/ 4.ee/	.
8AAA/ 8AA/	&(8A/&) 8a/	.
4AAA/ 4AA/	4A/ 4a/)	.
4E\	4e/ (4ee/	.
=16	=16	=16
4AA\ &(4A\&)	4a/)	.
(4EE/	4E/ (4e/	pp
&(4AAA/&) 4AA/)	4A/)	.
4DD/ 4AA/ 4D/	4a\ 4ff\ 4aa\	p
=17	=17	=17
4DD/ 4AA/ 4D/	4a\ 4ff\ 4aa\	.
(8DD'/ 8FF'/ 8D'/L	8f'\ 8dd'\ (8ff'\L	.
8DD'/) 8GG'/ 8D'/J	8g'\ 8ee'\ 8gg'\J)	.
4DD/ 4AA/ 4D/	4a\ 4ff\ 4aa\	.
4GG/ 4BB-/ 4D/	4d/ 4b-/ 4dd/	.
=18	=18	=18
*^	*	*
4GG/ 4BB-/ 4D/	2.r	4d/ 4b-/ 4dd/	.
8GG'/ 8BB-'/L	.	(8B-'/ 8g'/ 8b-'/L	.
&(8GG'/&) 8AA'/ 8C'/J	.	8c'/) 8a'/ 8cc'/J	.
4GG/ 4BB-/ 4D/	.	4d/ 4b-/ 4dd/	.
[4E-/	[4EE-\	[4G/ (4g/	.
=19	=19	=19	=19
4E-/]	2.EE-\]	2.G/] 2.c#/)	.
&(2BB-/&)	.	.	.
*	*	*clefF4	*clefF4
[4BB-/	[4BBB-\	4C#\ (4c#\	.
=20	=20	=20	=20
(4BB-/]	1BBB-]	[2.D\ 2.d\)	.
2.FF/)	.	.	.
.	.	4D\] 4B-\	.
=21	=21	=21	=21
*	*	*^	*
2.r	2.FFF/ 2.AA/	2.r	2.C\ 2.F\	.
*	*	*v	*v	*
*	*	*clefG2	*clefG2
*	*	*^	*
4BB-/	[4BB-\	(4b-/	4d\ 4f\	p
*	*	*v	*v	*
=22	=22	=22	=22
4c/	2.BB-\]	4e-/ 4a/ 4cc/	.
8B-/L	.	8f/ 8b-/ 8dd/L	.
8c/J	.	8e-/ 8a/ 8cc/J	.
4B-/	.	4f/ 4b-/ 4dd/	.
4E-/	4r	4g\ 4b-\ 4gg\)	.
*v	*v	*	*
=23	=23	=23
4G\ 4d\	(4g/ 4b-/	.
4E-\ 4c\	4g/ 4cc/	.
4.D\ 4.A\	4.f#/ 4.dd/	.
8G\ 8B-\	8d/ 8g/	.
=24	=24	=24
4G\ &(4B-\&)	4d/) 4g/	.
4G\	(4B-/ 4e-/	.
4F\	4A-/ 4d/ 4f/	.
8E-\L	8B-/ 8e-/ 8g/L	.
8F\J	8A-/ 8d/ 8f/J	.
=25	=25	=25
4E-\	4B-/ 4e-/ 4g/	.
&(4AA-/&)	4c/) 4e-/ 4cc/	.
4C/	(4G/ 4c/ 4e-/	.
4BB-/	4B-/ 4d/ 4f/	.
=26	=26	=26
4.GG/ 4.D/	4.B-/ 4.d/ 4.g/	.
8DD/ 8AA/ 8D/	8A/ 8d/ 8a/	.
&(4.DD;/&) 4.AA;/ 4.D;/	4.A;/) 4.d;/ 4.a;/	.
=27	=27	=27
*k[f#c#]	*k[f#c#]	*k[f#c#]
*met(C)	*met(C)	*met(C)
*M4/4	*M4/4	*M4/4
*^	*	*
[4A/	(4D\	12f#\ 12dd\ 12ff#\L	p
.	.	12f#\ 12dd\ 12ff#\	.
.	.	12f#\ 12dd\ 12ff#\J	.
=28	=28	=28	=28
*	*	*^	*
2.A/]	4E\	2.f#^/ 2.dd^/ 2.ff#^/	4r	.
*	*	*clefF4	*clefF4	*clefF4
.	8F#\L	.	12DD\ 12AA\L	.
.	.	.	12DD\ 12AA\	.
.	8E\J	.	.	.
.	.	.	&(12DD\&) 12AA\J	.
.	4F#\)	.	4DD\ 4AA\	.
*	*	*v	*v	*
*	*	*clefG2	*clefG2
*	*	*^	*
4D^/ (4d^/	4A\	12f#/ 12dd/ 12ff#/L	4r	.
.	.	12f#/ 12dd/ 12ff#/	.	.
.	.	12f#/ 12dd/ 12ff#/J	.	.
=29	=29	=29	=29	=29
4E^/ 4e^/	2.A\)	2.f#^/ 2.dd^/ 2.ff#^/	4r	.
*	*	*clefF4	*clefF4	*clefF4
8F#^/ 8f#^/L	.	.	12DD^\ 12AA^\L	.
.	.	.	12DD\ 12AA\	.
&(8E^/&) 8e^/J	.	.	.	.
.	.	.	12DD\ 12AA\J	.
4F#/ 4f#/	.	.	4DD\ 4AA\	.
*	*	*v	*v	*
*	*	*clefG2	*clefG2
*	*	*^	*
[4A/	(4AA\	12f#'/ 12dd'/ 12ff#'/L	4r	.
.	.	12g'/ 12ee'/ 12gg'/	.	.
.	.	12a'/ 12ff#'/ 12aa'/J	.	.
=30	=30	=30	=30	=30
2A/]	4BB\	2.e^/ 2.a^/ 2.ee^/	4r	.
*	*	*clefF4	*clefF4	*clefF4
.	8C#\L	.	12AAA\ 12EE\L	.
.	.	.	12AAA\ 12EE\	.
.	8BB\J	.	.	.
.	.	.	12AAA\ 12EE\J	.
4r	4C#\	.	4AAA\ 4EE\	.
*	*	*v	*v	*
*	*	*clefG2	*clefG2
*	*	*^	*
4AA^/ (4A^/	4D\)	12f#'/ 12dd'/ 12ff#'/L	4r	.
.	.	12g'/ 12ee'/ 12gg'/	.	.
.	.	12a'/ 12ff#'/ 12aa'/J	.	.
*v	*v	*	*	*
=31	=31	=31	=31
4BB^\ 4B^\	2.e^/ 2.a^/ 2.ee^/	4r	.
*	*clefF4	*clefF4	*clefF4
8C#^\ 8c#^\L	.	12AAA\ 12EE\L	.
.	.	12AAA\ 12EE\	.
8BB^\ 8B^\J	.	.	.
.	.	12AAA\ 12EE\J	.
4C#^\ 4c#^\)	.	4AAA\ 4EE\	.
*	*v	*v	*
*	*clefG2	*clefG2
*	*^	*
4D^\ [4A^\ (4d^\	12f#'/ 12dd'/ 12ff#'/L	4r	.
.	12f#'/ 12dd'/ 12ff#'/	.	.
.	12f#'/ 12dd'/ 12ff#'/J	.	.
*	*v	*v	*
=32	=32	=32
*^	*	*
&(4E/&) 4A/] 4e/)	4r	2.f#^\ 2.dd^\ 2.ff#^\	.
8F#'/ 8d'/ 8f#'/L	12BBB\ 12BB\L	.	.
.	12BBB\ 12BB\	.	.
8E'/ 8c#'/ 8e'/J	.	.	.
.	12BBB\ 12BB\J	.	.
4F#/ 4d/ 4f#/	4BBB\ 4BB\	.	.
12BB'/ 12B'/L	4r	12f#'/ 12dd#'/ 12ff#'/L	.
12C#'/ 12c#'/	.	12e'/ 12ee'/	.
12D#'/ 12d#'/J	.	12f#'/ 12ff#'/J	.
=33	=33	=33	=33
4E/ 4e/	4r	2.g^\ 2.b^\ 2.gg^\	.
8E'/ 8e'/L	12EEE\ 12EE\L	.	.
.	12EEE\ 12EE\	.	.
8D#'/ 8d#'/J	.	.	.
.	12EEE\ 12EE\J	.	.
4E^/ 4e^/	4EEE\ 4EE\	.	.
4E^/ 4e^/	4r	12g#\ 12b\ 12gg#\L	f
.	.	12g#\ 12b\ 12gg#\	.
.	.	12g#\ 12b\ 12gg#\J	.
=34	=34	=34	=34
4E#/ 4e#/	4r	2.g#^\ 2.b^\ 2.gg#^\	.
8E#'/ 8c#'/ 8e#'/L	12CC#\ 12C#\L	.	.
.	12CC#\ 12C#\	.	.
8D#/ 8d#/J	.	.	.
.	12CC#\ 12C#\J	.	.
4E#^/ 4c#^/ 4e#^/	4CC#\ 4C#\	.	.
12C#'/ 12c#'/L	4r	12g#\ 12cc#\ 12gg#\L	.
12D#/ 12d#/	.	12f#'\ 12ff#'\	.
12E#/ 12e#/J	.	12g#'\ 12gg#'\J	.
=35	=35	=35	=35
4F#/ 4f#/	4r	2.a^\ 2.cc#^\ 2.aa^\	.
8F#/ 8f#/L	12FFF#\ 12FF#\L	.	.
.	12FFF#\ 12FF#\	.	.
8E#/ 8e#/J	.	.	.
.	12FFF#\ 12FF#\J	.	.
4F#/ 4f#/	4FFF#\ 4FF#\	.	.
12F#\ 12c#\ 12f#\L	4r	12a#'\ 12ff#'\ 12aa#'\L	.
12F#\ 12c#\ 12f#\	.	12a#'\ 12ff#'\ 12aa#'\	.
12F#\ 12c#\ 12f#\J	.	12a#'\ 12ff#'\ 12aa#'\J	.
=36	=36	=36	=36
4F#/ 4c#/ 4f#/	4r	2.a#^\ 2.ff#^\ 2.aa#^\	.
8F#'/ 8f#'/L	12EEn\ 12FF#\L	.	.
.	12EE\ 12FF#\	.	.
8En'/ 8en'/J	.	.	.
.	12EE\ 12FF#\J	.	.
4F#/ 4f#/	4EE\ 4FF#\	.	.
12DD#/ 12FF#/ 12D#/L	4r	12b\ 12ff#\ 12bb\L	.
12DD#/ 12FF#/ 12D#/	.	12b\ 12ff#\ 12bb\	.
12DD#/ 12FF#/ 12D#/J	.	12b\ 12ff#\ 12bb\J	.
*v	*v	*	*
=37	=37	=37
4DD#/ 4FF#/ 4D#/	4b\ 4ff#\ 4bb\	.
12CC#/ 12FF#/ 12C#/L	12cc#\ 12ff#\ 12aa#\ 12ccc#\L	.
12CC#/ 12FF#/ 12C#/	12cc#\ 12ff#\ 12aa#\ 12ccc#\	.
12CC#/ 12FF#/ 12C#/J	12cc#\ 12ff#\ 12aa#\ 12ccc#\J	.
4CC#/ 4FF#/ 4C#/	4cc#\ 4ff#\ 4aa#\ 4ccc#\	.
12BBB/ 12FF#/ 12BB/L	12dd#\ 12ff#\ 12ddd#\L	.
12BBB/ 12FF#/ 12BB/	12dd#\ 12ff#\ 12ddd#\	.
12BBB/ 12FF#/ 12BB/J	12dd#\ 12ff#\ 12ddd#\J	.
=38	=38	=38
4BBB/ 4FF#/ 4BB/	2.dd#\ 2.ff#\ 2.ddd#\	ff
8C#''\ 8c#''\L	.	.
8BB''\ 8B''\J	.	.
4C#\ 4c#\	.	.
12AAAn/ 12AAn/L	12ee\ 12aan\ 12ccc#\ 12eee\L	.
12AAA/ 12AA/	12ee\ 12aa\ 12ccc#\ 12eee\	.
12AAA/ 12AA/J	12ee\ 12aa\ 12ccc#\ 12eee\J	.
=39	=39	=39
*	*^	*
4AAA/ 4AA/	2.ee/ 2.aa/ 2.ccc#/ 2.eee/	4r	.
12GG/ 12AA/L	.	8A'\ 8a'\L	.
12GG/ 12AA/	.	.	.
.	.	8G'\ 8g'\J	.
12GG/ 12AA/J	.	.	.
4GG^/ 4AA^/	.	4A^\ 4a^\	.
12FFF#/ 12FF#/L	12ff#\ 12ddd\ 12fff#\L	4r	.
12FFF#/ 12FF#/	12ff#\ 12ddd\ 12fff#\	.	.
12FFF#/ 12FF#/J	12ff#\ 12ddd\ 12fff#\J	.	.
*	*v	*v	*
=40	=40	=40
4FFF#/ 4FF#/	4ff#\ 4ddd\ 4fff#\	.
12EEE/ 12EE/L	12g\ 12dd\ 12ee\ 12gg\L	.
12EEE/ 12EE/	12g\ 12dd\ 12ee\ 12gg\	.
12EEE/ 12EE/J	12g\ 12dd\ 12ee\ 12gg\J	.
4EEE/ 4EE/	4g\ 4dd\ 4ee\ 4gg\	.
12DDD/ 12DD/L	12a\ 12dd\ 12ff#\ 12aa\L	.
12DDD/ 12DD/	12a\ 12dd\ 12ff#\ 12aa\	.
12DDD/ 12DD/J	12a\ 12dd\ 12ff#\ 12aa\J	.
=41	=41	=41
*	*^	*
4DDD/ 4DD/	2.a^/ 2.dd^/ 2.ff#^/ 2.aa^/	4r	ff
8E''\ 8e''\L	.	12a\ 12ff#\ 12aa\L	.
.	.	12a\ 12ff#\ 12aa\	.
8D''\ 8d''\J	.	.	.
.	.	12a\ 12ff#\ 12aa\J	.
4F#\ 4f#\	.	4a\ 4ff#\ 4aa\	.
12DDD/ 12DD/L	12a/ 12ff#/ 12aa/L	4r	.
12DDD/ 12DD/	12a/ 12ff#/ 12aa/	.	.
12DDD/ 12DD/J	12a/ 12ff#/ 12aa/J	.	.
=42	=42	=42	=42
4DDD/ 4DD/	2.a^/ 2.ff#^/ 2.aa^/	4r	.
8E''\ 8e''\L	.	12a\ 12ff#\ 12aa\L	.
.	.	12a\ 12ff#\ 12aa\	.
8D''\ 8d''\J	.	.	.
.	.	12a\ 12ff#\ 12aa\J	.
4F#\ 4f#\	.	4a\ 4ff#\ 4aa\	.
12DDD''/ 12DD''/L	12a/ 12ffn/ 12aa/L	4r	.
12FFn''/	12a/ 12ff/ 12aa/	.	.
12AA''/J	12a/ 12ff/ 12aa/J	.	.
=43	=43	=43	=43
4BBB-^/ 4BB-^/	2.b-^/ 2.dd^/ 2.ffn^/ 2.bb-^/	4r	.
8Cn''\ 8cn''\L	.	12fn\ 12dd\ 12ffn\L	.
.	.	12f\ 12dd\ 12ff\	.
8BB-''\ 8B-''\J	.	.	.
.	.	12f\ 12dd\ 12ff\J	.
4D\ 4d\	.	4f\ 4dd\ 4ff\	.
12DDD''/ 12DD''/L	12a/ 12ffn/ 12aa/L	4r	.
12FFn''/	12a/ 12ff/ 12aa/	.	.
12AA''/J	12a/ 12ff/ 12aa/J	.	.
=44	=44	=44	=44
4BBB-/ 4BB-/	2.b-^/ 2.dd^/ 2.ffn^/ 2.bb-^/	4r	.
8Cn''\ 8cn''\L	.	12fn\ 12dd\ 12ffn\L	.
.	.	12f\ 12dd\ 12ff\	.
8BB-''\ 8B-''\J	.	.	.
.	.	12f\ 12dd\ 12ff\J	.
4D\ 4d\	.	4f\ 4dd\ 4ff\	.
12DDD''/ 12DD''/L	4dd\ 4ff\ 4bb-\ (4ddd\	4r	ff
12FFn''/	.	.	.
12BB-''/J	.	.	.
*	*v	*v	*
=45	=45	=45
*k[b-]	*k[b-]	*k[b-]
4CC^/ 4C^/	4cc^\ 4ee-^\ 4aa^\ 4ccc^\	pp
(8DD'/ 8D'/L	8b-'\ 8ff'\ 8bb-'\L	.
8CC'/) 8C'/J	8cc'\ 8ee-'\ 8aa'\ &(8ccc'\J&)	.
4DD^/ 4D^/	4a^\ 4cc^\ 4ff#^\ 4aa^\	.
12GGG'/ 12GG'/L	4g^\ 4b-^\ 4dd^\ 4gg^\)	.
12AAA'/ 12AA'/	.	.
[12BBB-/ [12BB-/J	.	.
=46	=46	=46
4BBB-/] 4BB-/]	4dd'\ 4ff'\ 4bb-'\ (4ddd'\	.
4CC/ 4C/	4cc'\ 4ee-'\ 4aa'\ 4ccc'\)	.
(4.DD/ 4.D/	4.a\ 4.cc\ 4.ff#\ (4.aa\	.
8GG/) 8D/ 8G/	8g\ 8b-\ 8dd\ 8gg\)	.
=47	=47	=47
4GG/ 4D/ 4G/	4g\ 4b-\ 4dd\ 4gg\	.
12EEE-''/ 12EE-''/L	4g^\ 4b-^\ 4ee-^\ (4gg^\	.
12BB-''/	.	.
12E-''/J	.	.
4FF^/ 4F^/	4f\ 4a-\ 4dd\ 4ff\)	.
(8GG'/ 8G'/L	8e-'\ 8b-'\ (8ee-'\L	.
8FF'/) 8F'/J	8f'\ 8a-'\ 8dd'\ 8ff'\J)	.
=48	=48	=48
4GG/ 4G/	(4d/ 4f/ 4bn/ 4dd/	.
12CCC'/ 12CC'/L	4c/) 4e-/ 4g/ 4cc/	.
12DDD'/ 12DD'/	.	.
[12EEE-/ [12EE-/J	.	.
4EEE-/] 4EE-/]	4g'\ 4b'\ 4ee-'\ (4gg'\	.
4FFF/ 4FF/	4f'\ 4a-'\ 4dd'\ 4ff'\)	.
=49	=49	=49
*^	*	*
4.GGG/ 4.GG/	2.r	(4.d/ 4.f/ 4.bn/ 4.dd/	.
&(8CC/&) 8GG/ 8C/	.	8c/) 8e-/ 8g/ 8cc/	.
4CC/ 4GG/ 4C/	.	4c/ 4e-/ 4g/ 4cc/	.
4BB-/	12BBB-\L	4f/ 4a-/ (4dd/	.
.	12BBB-\	.	.
.	12BBB-\J	.	.
=50	=50	=50	=50
4C/	2BBB-\	4e-/ 4a-/ 4cc/	ff
8D/L	.	8f'/ 8a-'/ 8b-'/L	.
8C/J	.	8e-'/ 8a-'/ 8cc'/J	.
4D/	[4BBB-\	4B-/ 4f/ 4a-/	.
&(4E-/&)	12BBB-\L]	4B-/ 4e-/ 4g/)	.
.	12BBB-\	.	.
.	12BBB-\J	.	.
=51	=51	=51	=51
4BB-/	2BBB-\	4f/ 4a-/ (4dd/	.
4C/	.	4e-/ 4a-/ 4cc/	.
4.D/	[2BBB-\	4.B-/ 4.f/ 4.a-/	.
8E-/	.	8B-/ 8e-/ 8g/	.
=52	=52	=52	=52
&(4E-/&)	4BBB-\]	4B-/ 4e-/ 4g/)	.
4EE-/	12EEE-\L	4B-/ 4e-/ (4g/	.
.	12EEE-\	.	.
.	12EEE-\J	.	.
4FF/	2EEE-\	4A-/ 4d/ 4f/	.
8GG/L	.	8B-/ 8e-/L	.
8FF/J	.	8A-/ 8d/ 8f/J	.
=53	=53	=53	=53
4GG/	[4EEE-\	4F/ 4Bn/ 4d/)	.
&(4C/&)	12EEE-\L]	4E-/ 4c/	.
.	12EEE-\	.	.
.	12EEE-\J	.	.
4EE-/	2EEE-\	4B/ 4e-/ (4g/	.
4FF/	.	4A-/ 4d/ 4f/	.
=54	=54	=54	=54
4GG/	[4EEE-\	4B-/ 4e-/ 4b-/	.
&(4DD/&)	12EEE-\L]	4B-/ 4f/ 4a-/	.
.	12EEE-\	.	.
.	12EEE-\J	.	.
(4EE-/	2EEE-\	4B-/ 4e-/ 4g/	.
4FF/	.	4A-/ 4d/ 4f/)	.
=55	=55	=55	=55
4GG/	[4EEE-\	4B-/ 4e-/ 4b-/	.
4DD/)	12EEE-\L]	4B-/ 4f/ 4a-/	.
.	12EEE-\	.	.
.	12EEE-\J	.	.
4EEE-/ 4EE-/	2r	2B-/ 2e-/ 2g/	.
[4FFF/ ([4FF/	.	.	.
*v	*v	*	*
=56	=56	=56
4FFF/] 4FF/]	2A-/ 2d/ 2f/	.
2GGG/ 2GG/	.	.
.	2G/ 2B-/ 2e-/	.
[4EEE-/ [4EE-/	.	.
=57	=57	=57
4EEE-/] 4EE-/]	2B-/ 2d/	.
&(2EEEn/&) 2EEn/	.	.
.	2B-/ 2d-/	.
[4FFF/ [4FF/)	.	.
=58	=58	=58
8FFF/] 8FF/]	4An/ 4c/	pp
8r	.	.
2.BB-^/ 2.D-^/ (2.En^/	4r	.
.	2r	.
=59	=59	=59
*^	*	*
4FF/ &(4AA/&) 4C/ 4F/)	4r	1r	.
2.C#/ [2.E/	(2BB-\	.	.
.	8AA\L	.	.
.	8GG\J	.	.
=60	=60	=60	=60
2C/) 2E/]	4FF\	2r	.
.	&(4EE\&)	.	.
4r	2r	4r	.
12r	.	4a\ 4ff\ 4aa\	p
12AA'/L	.	.	.
[12DD/ [12D/J	.	.	.
=61	=61	=61	=61
12r	1DD] 1D]	4a\ 4ff\ 4aa\	.
12BB-'/L	.	.	.
12AA'/J	.	.	.
12r	.	8f'\ 8dd'\ 8ff'\L	.
12FF'/L	.	.	.
.	.	8g'\ 8ee'\ 8gg'\J	.
12GG'/J	.	.	.
12r	.	4a\ 4ff\ 4aa\	.
12BB-'/L	.	.	.
12AA'/J	.	.	.
12r	.	4d/ 4f/ 4dd/	.
12FF'/L	.	.	.
12DD'/J	.	.	.
=62	=62	=62	=62
12r	2.AA/	(4.e/ 4.a/ 4.ee/	.
12FF'\L	.	.	.
12EE'\J	.	.	.
12r	.	.	.
12CC#'\L	.	.	.
.	.	8A/) 8a/	.
12AAA'\J	.	.	.
12r	.	4A/ 4a/	.
12f\L	.	.	.
12e'\J	.	.	.
12r	4r	4e/ (4ee/	.
12F'\L	.	.	.
12E'\J	.	.	.
*v	*v	*	*
=63	=63	=63
12r	&(4A/&) 4a/)	.
12C#'/L	.	.
12AA'/J	.	.
*	*clefF4	*clefF4
12r	4E\ (4e\	pp
12FF'/L	.	.
12EE'/J	.	.
12r	&(4AA\&) 4A\)	.
12CC#'/L	.	.
12AAA'/J	.	.
*	*clefG2	*clefG2
12r	4a\ 4ff\ (4aa\	p
12AA'/L	.	.
[12DD/ [12D/J	.	.
=64	=64	=64
*^	*	*
12r	2.DD\] 2.D\]	4a\ 4ff\ 4aa\	.
12BB-'/L	.	.	.
12AA'/J	.	.	.
12r	.	8f'\ 8dd'\ 8ff'\L	.
12FF'/L	.	.	.
.	.	8g'\ 8ee'\ 8gg'\J	.
12GG'/J	.	.	.
12r	.	4a\ 4ff\ 4aa\)	.
12BB-/L	.	.	.
12AA'/J	.	.	.
12r	4r	4d/ 4f/ (4dd/	.
12DD/L	.	.	.
[12AAA/ [12AA/J	.	.	.
=65	=65	=65	=65
12r	1AAA] 1AA]	4e/ 4cc/ 4ee/	.
12FF'/L	.	.	.
12EE'/J	.	.	.
12r	.	8c'/ 8a'/ 8cc'/L	.
12CC'/L	.	.	.
.	.	8d'/ 8bn'/ 8dd'/J	.
12DD'/J	.	.	.
12r	.	4e'/ 4cc'/ 4ee'/	.
12FF'/L	.	.	.
12EE'/J	.	.	.
12r	.	4A/ 4c/ (4a/)	.
12CC'/L	.	.	.
12AAA'/J	.	.	.
*v	*v	*	*
=66	=66	=66
12r	2.B-/ 2.c#/ &(2.e/&) 2.b-/)	p
12AAA'/ 12AA'/L	.	.
12GGG'/ 12GG'/J	.	.
12r	.	.
12AAA'^/ 12AA'^/L	.	.
12GGG'/ 12GG'/J	.	.
12r	.	.
12AAA'^/ 12AA'^/L	.	.
12GGG'/ 12GG'/J	.	.
4r	4A/ 4c#/ 4e/ (4a/	.
=67	=67	=67
12r	&(2.G/&) 2.e/ 2.g/)	.
(12AAA'^/ 12AA'^/L	.	.
12BBB-'/) 12BB-'/J	.	.
12r	.	.
(12AAA'^/ 12AA'^/L	.	.
12BBB-'/) 12BB-'/J	.	.
12r	.	.
(12AAA'^/ 12AA'^/L	.	.
12BBB-'/) 12BB-'/J	.	.
*	*clefF4	*clefF4
12r	[4F#^\ [4d^\ [4f#^\	.
(12BBB-'^/ 12BB-'^/L	.	.
12AAA'/) 12AA'/J	.	.
=68	=68	=68
*	*^	*
12r	2.F#\] 2.d\] 2.f#\]	12r	.
[6DDD/ ([6DD/	.	12B-/L	p
.	.	12A'/J	.
2DDD/] 2DD/])	.	12r	.
.	.	12B-'/L	.
.	.	12A'/J	.
.	.	12r	.
.	.	(12B-/L	.
.	.	12A'/J	.
12r	[4Fn\ [4d\ [4fn\)	4r	.
(12AAA'/ 12AA'/L	.	.	.
12GGG#'/) 12GG#'/J	.	.	.
=69	=69	=69	=69
*^	*	*	*
2.r	12r	2.F\] 2.d\] 2.f\]	12r	.
.	[6DDD/ [6DD/	.	12A'/L	.
.	.	.	12G#'/J	.
.	2DDD/] 2BBB-/ 2DD/]	.	12r	.
.	.	.	(12A'/L	.
.	.	.	12G#'/J)	.
.	.	.	12r	.
.	.	.	(12A'/L	.
.	.	.	12G#'/J)	.
[4DD\	12r	[4Gn\ [4B-\ [4e\	4r	.
.	12FF#'/L	.	.	.
.	[12GG/J	.	.	.
*	*	*v	*v	*
=70	=70	=70	=70
4GG/]	2.DD\]	4G\] 4B-\] 4e\]	.
12r	.	2F\ 2Bn\ 2d\	.
12GG'/L	.	.	.
[12GG#/J	.	.	.
4GG#/]	.	.	.
4r	(4AAA/ 4AA/	[4E\ [4A\ [4c#\	.
*v	*v	*	*
=71	=71	=71
2FFF/ 2FF/	2E\] 2A\_ 2c#\]	.
2DDD/) 2DD/	2F\ 2A\] &(2d\&)	.
=72	=72	=72
2.DDD;/ 2.DD;/	2.D;\ 2.F;\ 2.A;\ 2.d;\	.
==	==	==
*-	*-	*-
!!!ENC: Craig Stuart Sapp
!!!END: 2004/09/03/
